; generated by PrusaSlicer 2.6.0-alpha6+win64 on 2023-04-10 at 10:35:52 UTC


;
;
; 

; external perimeters extrusion width = 0.60mm
; perimeters extrusion width = 0.50mm
; infill extrusion width = 0.50mm
; solid infill extrusion width = 0.50mm
; top infill extrusion width = 0.45mm
; first layer extrusion width = 0.42mm

M73 P0 R20
M73 Q0 S20
M201 X1000 Y1000 Z200 E5000 ; sets maximum accelerations, mm/sec^2
M203 X200 Y200 Z12 E120 ; sets maximum feedrates, mm / sec
M204 S1250 T1250 ; sets acceleration (S) and retract acceleration (R), mm/sec^2
M205 X8.00 Y8.00 Z0.40 E4.50 ; sets the jerk limits, mm/sec
M205 S0 T0 ; sets the minimum extruding and travel feed rate, mm/sec
;TYPE:Custom
M862.3 P "MK3S" ; printer model check
M862.1 P0.4 ; nozzle diameter check
M115 U3.12.2 ; tell printer latest fw version
G90 ; use absolute coordinates
M83 ; extruder relative mode
M104 S240 ; set extruder temp
M140 S85 ; set bed temp
M190 S85 ; wait for bed temp
M109 S240 ; wait for extruder temp
G28 W ; home all without mesh bed level
G80 ; mesh bed leveling

G1 Z0.2 F720
G1 Y-3 F1000 ; go outside print area
G92 E0
G1 X60 E9 F1000 ; intro line
G1 X100 E12.5 F1000 ; intro line

G92 E0
M221 S95

; Don't change E values below. Excessive value can damage the printer.

M907 E538 ; set extruder motor current
G21 ; set units to millimeters
G90 ; use absolute coordinates
M83 ; use relative distances for extrusion
M900 K0.08 ; Filament gcode LA 1.5
M900 K45 ; Filament gcode LA 1.0
M107
;LAYER_CHANGE
;Z:0.2
;HEIGHT:0.2
;BEFORE_LAYER_CHANGE
G92 E0.0
;0.2


G1 E-1 F2100
G1 Z.2 F720
;AFTER_LAYER_CHANGE
;0.2
G1 Z.4
G1 X88.017 Y77.021 F10800
G1 Z.2 F720
G1 E1 F2100
M204 S800
;TYPE:Skirt/Brim
;WIDTH:0.42
G1 F1200
G1 X89.194 Y75.762 E.05404
G1 X90.524 Y74.832 E.05088
G1 X91.62 Y74.325 E.03786
G1 X92.473 Y74.067 E.02794
G1 X93.582 Y73.868 E.03533
G1 X94.282 Y73.825 E.02199
G1 X155.732 Y73.826 E1.92672
G1 X157.159 Y73.98 E.045
G1 X158.66 Y74.439 E.04921
G1 X159.759 Y74.999 E.03867
G1 X161.006 Y75.937 E.04893
G1 X162.146 Y77.246 E.05443
G1 X162.898 Y78.589 E.04826
G1 X163.345 Y79.906 E.04361
G1 X163.534 Y81.024 E.03555
G1 X163.55 Y128.822 E1.49867
G1 X163.229 Y130.523 E.05428
M73 P1 R20
M73 Q1 S20
G1 X162.762 Y131.707 E.03991
G1 X161.983 Y132.979 E.04677
G1 X160.806 Y134.238 E.05404
G1 X159.796 Y134.981 E.03931
G1 X158.429 Y135.657 E.04782
G1 X157.151 Y136.023 E.04168
G1 X155.613 Y136.177 E.04846
G1 X94.387 Y136.177 E1.9197
G1 X93.569 Y136.131 E.02569
M73 P1 R19
G1 X92.535 Y135.955 E.03289
G1 X91.076 Y135.45 E.04841
G1 X89.59 Y134.557 E.05436
G1 X88.6 Y133.661 E.04187
G1 X87.636 Y132.425 E.04915
G1 X86.941 Y131.03 E.04887
G1 X86.578 Y129.759 E.04144
G1 X86.426 Y128.333 E.04496
G1 X86.423 Y81.787 E1.45942
G1 X86.48 Y80.85 E.02943
G1 X86.632 Y79.999 E.0271
G1 X87.132 Y78.519 E.04898
G1 X87.986 Y77.073 E.05265
M204 S1000
; printing object cableclip.stl id:0 copy 5
;WIPE_START
G1 F8640
G1 X89.194 Y75.762 E-.41163
G1 X90.524 Y74.832 E-.37473
G1 X91.364 Y74.444 E-.21364
;WIPE_END
G1 Z.4 F720
G1 X145.021 Y76.61 F10800
G1 Z.2 F720
G1 E1 F2100
M204 S800
;TYPE:External perimeter
;WIDTH:0.419999
G1 F1200
G1 X145.021 Y77.39 E.02446
G1 X133.578 Y77.391 E.35879
G1 X132.899 Y77.448 E.02136
G1 X132.054 Y77.673 E.02742
G1 X131.583 Y77.88 E.01613
G1 X130.834 Y78.369 E.02805
G1 X130.47 Y78.7 E.01543
G1 X129.73 Y79.687 E.03868
G1 X129.448 Y80.34 E.0223
G1 X129.345 Y80.709 E.01201
G1 X129.219 Y81.288 E.01858
G1 X129.19 Y81.794 E.01589
G1 X129.19 Y85.792 E.12535
G1 X129.278 Y86.606 E.02567
G1 X129.42 Y87.197 E.01906
G1 X129.662 Y87.76 E.01921
G1 X130.069 Y88.437 E.02477
G1 X130.687 Y89.104 E.02851
G1 X131.371 Y89.602 E.02653
G1 X132.132 Y89.956 E.02632
G1 X132.959 Y90.161 E.02671
G1 X133.591 Y90.21 E.01988
G1 X155.589 Y90.21 E.68973
G1 X156.307 Y90.152 E.02259
G1 X156.902 Y90.012 E.01917
G1 X157.375 Y89.832 E.01587
G1 X158.068 Y89.452 E.02478
G1 X158.728 Y88.903 E.02692
G1 X159.247 Y88.273 E.02559
G1 X159.59 Y87.652 E.02224
G1 X159.803 Y87.134 E.01756
G1 X159.98 Y86.316 E.02624
G1 X160.01 Y85.806 E.01602
G1 X160.01 Y81.813 E.1252
G1 X159.929 Y80.977 E.02633
M73 Q2 S20
G1 X159.81 Y80.491 E.01569
G1 X159.633 Y80.026 E.0156
G1 X159.246 Y79.323 E.02516
G1 X158.707 Y78.675 E.02643
M73 P2 R19
G1 X158.3 Y78.318 E.01697
G1 X157.832 Y78.006 E.01764
G1 X157.339 Y77.768 E.01716
G1 X156.833 Y77.575 E.01698
G1 X156.109 Y77.419 E.02322
G1 X155.606 Y77.39 E.0158
G1 X152.841 Y77.39 E.08669
G1 X152.841 Y76.61 E.02446
G1 X155.599 Y76.61 E.08648
G1 X156.541 Y76.697 E.02966
G1 X157.029 Y76.814 E.01573
G1 X157.655 Y77.038 E.02085
G1 X158.128 Y77.279 E.01664
G1 X158.647 Y77.601 E.01915
G1 X159.382 Y78.249 E.03072
G1 X159.85 Y78.83 E.02339
G1 X160.071 Y79.17 E.01271
G1 X160.407 Y79.85 E.02378
G1 X160.663 Y80.679 E.0272
G1 X160.753 Y81.22 E.0172
G1 X160.79 Y81.813 E.01863
G1 X160.79 Y85.793 E.12479
G1 X160.766 Y86.273 E.01507
G1 X160.667 Y86.905 E.02006
G1 X160.54 Y87.39 E.01572
G1 X160.34 Y87.894 E.017
G1 X160.071 Y88.425 E.01866
G1 X159.797 Y88.85 E.01585
G1 X159.318 Y89.41 E.02311
G1 X158.941 Y89.767 E.01628
G1 X158.381 Y90.18 E.02182
G1 X157.749 Y90.522 E.02253
G1 X157.399 Y90.667 E.01188
G1 X156.676 Y90.873 E.02357
G1 X156.163 Y90.957 E.0163
G1 X155.601 Y90.99 E.01765
G1 X133.601 Y90.99 E.68979
G1 X132.658 Y90.902 E.0297
G1 X131.925 Y90.702 E.02382
G1 X131.412 Y90.504 E.01724
G1 X130.961 Y90.265 E.016
G1 X130.422 Y89.897 E.02046
G1 X129.919 Y89.45 E.0211
G1 X129.491 Y88.963 E.02033
G1 X129.219 Y88.58 E.01473
G1 X128.972 Y88.138 E.01588
G1 X128.742 Y87.627 E.01757
G1 X128.512 Y86.805 E.02676
G1 X128.463 Y86.486 E.01012
G1 X128.41 Y85.801 E.02154
G1 X128.41 Y81.798 E.12551
G1 X128.446 Y81.2 E.01878
G1 X128.565 Y80.552 E.02066
G1 X128.683 Y80.161 E.01281
G1 X128.897 Y79.611 E.0185
G1 X129.129 Y79.175 E.01549
G1 X129.403 Y78.75 E.01585
G1 X129.931 Y78.132 E.02549
G1 X130.549 Y77.604 E.02549
G1 X131.175 Y77.212 E.02316
G1 X131.716 Y76.974 E.01853
G1 X132.199 Y76.804 E.01605
G1 X133.151 Y76.633 E.03033
G1 X133.596 Y76.61 E.01397
G1 X144.961 Y76.61 E.35634
M204 S1000
G1 X144.821 Y76.957 F10800
;WIPE_START
G1 F8640
G1 X145.021 Y77.39 E-.18064
G1 X141.472 Y77.39 E-.81936
;WIPE_END
M73 Q2 S19
G1 Z.4 F720
G1 X153.231 Y77 F10800
G1 Z.2 F720
G1 E1 F2100
M204 S800
;TYPE:Perimeter
;WIDTH:0.445842
G1 F1200
G1 X155.581 Y77 E.07873
G1 X156.124 Y77.04 E.01824
;WIDTH:0.452014
G1 X156.916 Y77.191 E.02743
;WIDTH:0.460398
G1 X157.497 Y77.404 E.02148
G1 X157.952 Y77.623 E.01753
;WIDTH:0.454606
G1 X158.408 Y77.916 E.01855
G1 X158.961 Y78.388 E.02489
;WIDTH:0.445332
G1 X159.547 Y79.075 E.03021
G1 X159.974 Y79.841 E.02934
;WIDTH:0.441314
G1 X160.16 Y80.335 E.01749
;WIDTH:0.44073
G1 X160.301 Y80.857 E.01789
;WIDTH:0.443662
G1 X160.396 Y81.734 E.02939
;WIDTH:0.445842
G1 X160.4 Y85.793 E.13599
G1 X160.365 Y86.339 E.01833
;WIDTH:0.443874
G1 X160.183 Y87.217 E.02989
G1 X159.979 Y87.751 E.01906
;WIDTH:0.460816
G1 X159.721 Y88.237 E.01912
G1 X159.481 Y88.614 E.01553
;WIDTH:0.453736
G1 X159.022 Y89.158 E.02431
;WIDTH:0.443936
G1 X158.313 Y89.75 E.0308
;WIDTH:0.450402
G1 X157.562 Y90.177 E.02927
G1 X157.062 Y90.364 E.01809
;WIDTH:0.45299
G1 X156.568 Y90.495 E.01743
G1 X155.656 Y90.597 E.03129
;WIDTH:0.44584
G1 X133.619 Y90.6 E.7383
G1 X132.929 Y90.543 E.0232
;WIDTH:0.440994
G1 X132.038 Y90.331 E.03032
;WIDTH:0.465394
G1 X131.563 Y90.134 E.01806
G1 X131.112 Y89.897 E.0179
;WIDTH:0.458602
G1 X130.666 Y89.584 E.01883
;WIDTH:0.463016
G1 X130.203 Y89.168 E.02174
G1 X129.784 Y88.705 E.02181
;WIDTH:0.453312
G1 X129.324 Y87.961 E.02985
G1 X129.113 Y87.492 E.01755
;WIDTH:0.457672
G1 X128.893 Y86.698 E.02841
G1 X128.802 Y85.85 E.02941
;WIDTH:0.445842
G1 X128.8 Y81.809 E.13539
G1 X128.83 Y81.275 E.01792
;WIDTH:0.461564
G1 X128.956 Y80.624 E.02308
G1 X129.087 Y80.184 E.01598
;WIDTH:0.451334
G1 X129.375 Y79.534 E.02414
;WIDTH:0.485874
G1 X129.732 Y78.996 E.02378
G1 X130.16 Y78.465 E.02512
;WIDTH:0.445396
G1 X130.553 Y78.104 E.01786
;WIDTH:0.448514
G1 X131.359 Y77.559 E.03281
G1 X131.872 Y77.328 E.01897
;WIDTH:0.440116
G1 X132.801 Y77.082 E.03174
;WIDTH:0.445166
G1 X133.547 Y77.002 E.02509
;WIDTH:0.445842
G1 X144.631 Y77 E.37135
M204 S1000
; stop printing object cableclip.stl id:0 copy 5
; printing object cableclip.stl id:0 copy 2
;WIPE_START
G1 F8640
G1 X140.3 Y77 E-1
;WIPE_END
G1 Z.4 F720
G1 X145.021 Y97.81 F10800
G1 Z.2 F720
G1 E1 F2100
M204 S800
;TYPE:External perimeter
;WIDTH:0.419999
G1 F1200
G1 X145.021 Y98.59 E.02446
G1 X133.578 Y98.591 E.35879
G1 X132.899 Y98.648 E.02136
G1 X132.054 Y98.873 E.02742
G1 X131.583 Y99.08 E.01613
G1 X130.834 Y99.569 E.02805
G1 X130.47 Y99.9 E.01543
G1 X129.73 Y100.887 E.03868
G1 X129.448 Y101.54 E.0223
G1 X129.345 Y101.909 E.01201
G1 X129.219 Y102.488 E.01858
G1 X129.19 Y102.994 E.01589
G1 X129.19 Y106.992 E.12535
G1 X129.278 Y107.806 E.02567
G1 X129.42 Y108.397 E.01906
G1 X129.662 Y108.96 E.01921
G1 X130.069 Y109.637 E.02477
G1 X130.687 Y110.304 E.02851
G1 X131.371 Y110.802 E.02653
G1 X132.132 Y111.156 E.02632
G1 X132.959 Y111.361 E.02671
G1 X133.591 Y111.41 E.01988
G1 X155.589 Y111.41 E.68973
G1 X156.307 Y111.352 E.02259
G1 X156.902 Y111.212 E.01917
G1 X157.375 Y111.032 E.01587
G1 X158.068 Y110.652 E.02478
G1 X158.728 Y110.103 E.02692
G1 X159.247 Y109.473 E.02559
G1 X159.59 Y108.852 E.02224
G1 X159.803 Y108.334 E.01756
G1 X159.98 Y107.516 E.02624
G1 X160.01 Y107.006 E.01602
G1 X160.01 Y103.013 E.1252
G1 X159.929 Y102.177 E.02633
M73 P3 R19
M73 Q3 S19
G1 X159.81 Y101.691 E.01569
G1 X159.633 Y101.226 E.0156
G1 X159.246 Y100.523 E.02516
G1 X158.707 Y99.875 E.02643
G1 X158.3 Y99.518 E.01697
G1 X157.832 Y99.206 E.01764
G1 X157.339 Y98.968 E.01716
G1 X156.833 Y98.775 E.01698
G1 X156.109 Y98.619 E.02322
G1 X155.606 Y98.59 E.0158
G1 X152.841 Y98.59 E.08669
G1 X152.841 Y97.81 E.02446
G1 X155.599 Y97.81 E.08648
G1 X156.541 Y97.897 E.02966
G1 X157.029 Y98.014 E.01573
G1 X157.655 Y98.238 E.02085
G1 X158.128 Y98.479 E.01664
G1 X158.647 Y98.801 E.01915
G1 X159.382 Y99.449 E.03072
G1 X159.85 Y100.03 E.02339
G1 X160.071 Y100.37 E.01271
G1 X160.407 Y101.05 E.02378
G1 X160.663 Y101.879 E.0272
G1 X160.753 Y102.42 E.0172
G1 X160.79 Y103.013 E.01863
G1 X160.79 Y106.993 E.12479
G1 X160.766 Y107.473 E.01507
G1 X160.667 Y108.105 E.02006
G1 X160.54 Y108.59 E.01572
G1 X160.34 Y109.094 E.017
G1 X160.071 Y109.625 E.01866
G1 X159.797 Y110.05 E.01585
G1 X159.318 Y110.61 E.02311
G1 X158.941 Y110.967 E.01628
G1 X158.381 Y111.38 E.02182
G1 X157.749 Y111.722 E.02253
G1 X157.399 Y111.867 E.01188
G1 X156.676 Y112.073 E.02357
G1 X156.163 Y112.157 E.0163
G1 X155.601 Y112.19 E.01765
G1 X133.601 Y112.19 E.68979
G1 X132.658 Y112.102 E.0297
G1 X131.925 Y111.902 E.02382
G1 X131.412 Y111.704 E.01724
G1 X130.961 Y111.465 E.016
G1 X130.422 Y111.097 E.02046
G1 X129.919 Y110.65 E.0211
G1 X129.491 Y110.163 E.02033
G1 X129.219 Y109.78 E.01473
G1 X128.972 Y109.338 E.01588
G1 X128.742 Y108.827 E.01757
G1 X128.512 Y108.005 E.02676
G1 X128.463 Y107.686 E.01012
G1 X128.41 Y107.001 E.02154
G1 X128.41 Y102.998 E.12551
G1 X128.446 Y102.4 E.01878
G1 X128.565 Y101.752 E.02066
G1 X128.683 Y101.361 E.01281
G1 X128.897 Y100.811 E.0185
G1 X129.129 Y100.375 E.01549
G1 X129.403 Y99.95 E.01585
G1 X129.931 Y99.332 E.02549
G1 X130.549 Y98.804 E.02549
G1 X131.175 Y98.412 E.02316
G1 X131.716 Y98.174 E.01853
G1 X132.199 Y98.004 E.01605
G1 X133.151 Y97.833 E.03033
G1 X133.596 Y97.81 E.01397
G1 X144.961 Y97.81 E.35634
M204 S1000
G1 X144.821 Y98.157 F10800
;WIPE_START
G1 F8640
G1 X145.021 Y98.59 E-.18064
G1 X141.472 Y98.59 E-.81936
;WIPE_END
G1 Z.4 F720
G1 X153.231 Y98.2 F10800
G1 Z.2 F720
G1 E1 F2100
M204 S800
;TYPE:Perimeter
;WIDTH:0.445842
G1 F1200
G1 X155.581 Y98.2 E.07873
G1 X156.124 Y98.24 E.01824
;WIDTH:0.452014
G1 X156.916 Y98.391 E.02743
;WIDTH:0.460398
G1 X157.497 Y98.604 E.02148
G1 X157.952 Y98.823 E.01753
;WIDTH:0.454606
G1 X158.408 Y99.116 E.01855
G1 X158.961 Y99.588 E.02489
;WIDTH:0.445332
G1 X159.547 Y100.275 E.03021
G1 X159.974 Y101.041 E.02934
;WIDTH:0.441314
G1 X160.16 Y101.535 E.01749
;WIDTH:0.44073
G1 X160.301 Y102.057 E.01789
;WIDTH:0.443662
G1 X160.396 Y102.934 E.02939
;WIDTH:0.445842
G1 X160.4 Y106.993 E.13599
G1 X160.365 Y107.539 E.01833
;WIDTH:0.443874
G1 X160.183 Y108.417 E.02989
G1 X159.979 Y108.951 E.01906
;WIDTH:0.460816
G1 X159.721 Y109.437 E.01912
G1 X159.481 Y109.814 E.01553
;WIDTH:0.453736
G1 X159.022 Y110.358 E.02431
;WIDTH:0.443936
G1 X158.313 Y110.95 E.0308
;WIDTH:0.450402
G1 X157.562 Y111.377 E.02927
G1 X157.062 Y111.564 E.01809
;WIDTH:0.45299
G1 X156.568 Y111.695 E.01743
G1 X155.656 Y111.797 E.03129
;WIDTH:0.44584
G1 X133.619 Y111.8 E.7383
G1 X132.929 Y111.743 E.0232
;WIDTH:0.440994
G1 X132.038 Y111.531 E.03032
;WIDTH:0.465394
G1 X131.563 Y111.334 E.01806
G1 X131.112 Y111.097 E.0179
;WIDTH:0.458602
G1 X130.666 Y110.784 E.01883
;WIDTH:0.463016
G1 X130.203 Y110.368 E.02174
G1 X129.784 Y109.905 E.02181
;WIDTH:0.453312
G1 X129.324 Y109.161 E.02985
G1 X129.113 Y108.692 E.01755
;WIDTH:0.457672
G1 X128.893 Y107.898 E.02841
G1 X128.802 Y107.05 E.02941
;WIDTH:0.445842
G1 X128.8 Y103.009 E.13539
G1 X128.83 Y102.475 E.01792
;WIDTH:0.461564
G1 X128.956 Y101.824 E.02308
G1 X129.087 Y101.384 E.01598
;WIDTH:0.451334
G1 X129.375 Y100.734 E.02414
;WIDTH:0.485874
G1 X129.732 Y100.196 E.02378
G1 X130.16 Y99.665 E.02512
;WIDTH:0.445396
G1 X130.553 Y99.304 E.01786
;WIDTH:0.448514
G1 X131.359 Y98.759 E.03281
G1 X131.872 Y98.528 E.01897
;WIDTH:0.440116
G1 X132.801 Y98.282 E.03174
;WIDTH:0.445166
G1 X133.547 Y98.202 E.02509
;WIDTH:0.445842
G1 X144.631 Y98.2 E.37135
M204 S1000
; stop printing object cableclip.stl id:0 copy 2
; printing object cableclip.stl id:0 copy 3
;WIPE_START
G1 F8640
G1 X140.3 Y98.2 E-1
;WIPE_END
G1 Z.4 F720
G1 X145.021 Y119.01 F10800
G1 Z.2 F720
G1 E1 F2100
M204 S800
;TYPE:External perimeter
;WIDTH:0.419999
G1 F1200
G1 X145.021 Y119.79 E.02446
G1 X133.578 Y119.791 E.35879
G1 X132.899 Y119.848 E.02136
G1 X132.054 Y120.073 E.02742
G1 X131.583 Y120.28 E.01613
G1 X130.834 Y120.769 E.02805
G1 X130.47 Y121.1 E.01543
G1 X129.73 Y122.087 E.03868
G1 X129.448 Y122.74 E.0223
G1 X129.345 Y123.109 E.01201
G1 X129.219 Y123.688 E.01858
G1 X129.19 Y124.194 E.01589
G1 X129.19 Y128.192 E.12535
G1 X129.278 Y129.006 E.02567
G1 X129.42 Y129.597 E.01906
G1 X129.662 Y130.16 E.01921
G1 X130.069 Y130.837 E.02477
G1 X130.687 Y131.504 E.02851
G1 X131.371 Y132.002 E.02653
G1 X132.132 Y132.356 E.02632
G1 X132.959 Y132.561 E.02671
G1 X133.591 Y132.61 E.01988
G1 X155.589 Y132.61 E.68973
G1 X156.307 Y132.552 E.02259
G1 X156.902 Y132.412 E.01917
G1 X157.375 Y132.232 E.01587
G1 X158.068 Y131.852 E.02478
G1 X158.728 Y131.303 E.02692
G1 X159.247 Y130.673 E.02559
G1 X159.59 Y130.052 E.02224
G1 X159.803 Y129.534 E.01756
G1 X159.98 Y128.716 E.02624
G1 X160.01 Y128.206 E.01602
G1 X160.01 Y124.213 E.1252
G1 X159.929 Y123.377 E.02633
M73 P4 R19
M73 Q4 S19
G1 X159.81 Y122.891 E.01569
G1 X159.633 Y122.426 E.0156
G1 X159.246 Y121.723 E.02516
G1 X158.707 Y121.075 E.02643
G1 X158.3 Y120.718 E.01697
G1 X157.832 Y120.406 E.01764
G1 X157.339 Y120.168 E.01716
G1 X156.833 Y119.975 E.01698
G1 X156.109 Y119.819 E.02322
G1 X155.606 Y119.79 E.0158
G1 X152.841 Y119.79 E.08669
G1 X152.841 Y119.01 E.02446
G1 X155.599 Y119.01 E.08648
G1 X156.541 Y119.097 E.02966
G1 X157.029 Y119.214 E.01573
G1 X157.655 Y119.438 E.02085
G1 X158.128 Y119.679 E.01664
G1 X158.647 Y120.001 E.01915
G1 X159.382 Y120.649 E.03072
G1 X159.85 Y121.23 E.02339
G1 X160.071 Y121.57 E.01271
G1 X160.407 Y122.25 E.02378
G1 X160.663 Y123.079 E.0272
G1 X160.753 Y123.62 E.0172
G1 X160.79 Y124.213 E.01863
G1 X160.79 Y128.193 E.12479
G1 X160.766 Y128.673 E.01507
G1 X160.667 Y129.305 E.02006
G1 X160.54 Y129.79 E.01572
G1 X160.34 Y130.294 E.017
G1 X160.071 Y130.825 E.01866
G1 X159.797 Y131.25 E.01585
G1 X159.318 Y131.81 E.02311
G1 X158.941 Y132.167 E.01628
G1 X158.381 Y132.58 E.02182
G1 X157.749 Y132.922 E.02253
G1 X157.399 Y133.067 E.01188
G1 X156.676 Y133.273 E.02357
G1 X156.163 Y133.357 E.0163
G1 X155.601 Y133.39 E.01765
G1 X133.601 Y133.39 E.68979
G1 X132.658 Y133.302 E.0297
G1 X131.925 Y133.102 E.02382
G1 X131.412 Y132.904 E.01724
G1 X130.961 Y132.665 E.016
G1 X130.422 Y132.297 E.02046
G1 X129.919 Y131.85 E.0211
